packages/assets/images/doors-closed.svg

<?xml version="1.0" encoding="UTF-8" standalone="no"?>
<svg width="249px" height="227px" viewBox="0 0 249 227" version="1.1" xmlns="http://www.w3.org/2000/svg" xmlns:xlink="http://www.w3.org/1999/xlink">
    <!-- Generator: Sketch 45.2 (43514) - http://www.bohemiancoding.com/sketch -->
    <title>Suspended</title>
    <desc>Created with Sketch.</desc>
    <defs>
        <rect id="path-1" x="0" y="0" width="250" height="226.69384"></rect>
        <rect id="path-3" x="0" y="226.69384" width="248.77451" height="2.45074421" rx="1.22537211"></rect>
        <polygon id="path-4" points="0 176.852424 226.479931 176.852424 226.479931 2 113 2 0 2"></polygon>
    </defs>
    <g id="403" stroke="none" stroke-width="1" fill="none" fill-rule="evenodd">
        <g id="Suspended-_-V1" transform="translate(-835.000000, -77.000000)">
            <g id="Suspended" transform="translate(835.000000, 74.000000)">
                <g id="Illustration">
                    <g id="Oval-Copy">
                        <mask id="mask-2" fill="white">
                            <use xlink:href="#path-1"></use>
                        </mask>
                        <g id="Mask"></g>
                        <ellipse id="Oval" fill="#F2F2F2" mask="url(#mask-2)" cx="124.387255" cy="126.213327" rx="123.161765" ry="122.537211"></ellipse>
                    </g>
                    <g id="Rectangle-4">
                        <use fill="#000000" fill-rule="evenodd" xlink:href="#path-3"></use>
                        <rect stroke="#000000" stroke-width="1" x="0.5" y="227.19384" width="247.77451" height="1.45074421" rx="0.725372106"></rect>
                    </g>
                </g>
                <g id="Page-1" transform="translate(12.000000, 50.000000)">
                    <path d="M11.8049385,171.648888 C13.3745581,171.648888 14.6468681,172.91933 14.6468681,174.486645 C14.6468681,176.053959 13.3745581,177.324401 11.8049385,177.324401 L2.84192964,177.324401 C1.27231004,177.324401 0,176.053959 0,174.486645 C0,172.91933 1.27231004,171.648888 2.84192964,171.648888 L4.26289445,171.648888 L4.26289445,103.324444 L10.3839737,103.324444 L10.3839737,171.648888 L11.8049385,171.648888 Z" id="Fill-1" fill="#000000"></path>
                    <path d="M7.0501716,99.8318208 C9.58561005,99.8318208 11.640981,97.779468 11.640981,95.2477526 C11.640981,92.7160373 9.58561005,90.6636845 7.0501716,90.6636845 C4.51473314,90.6636845 2.45936218,92.7160373 2.45936218,95.2477526 C2.45936218,97.779468 4.51473314,99.8318208 7.0501716,99.8318208 Z" id="Fill-3" fill="#000000"></path>
                    <path d="M222.217037,172.303755 L222.217037,103.979311 L216.095957,103.979311 L216.095957,172.303755 L214.674992,172.303755 C213.105373,172.303755 211.833063,173.574197 211.833063,175.141512 C211.833063,176.708826 213.105373,177.979268 214.674992,177.979268 L223.638001,177.979268 C225.207621,177.979268 226.479931,176.708826 226.479931,175.141512 C226.479931,173.574197 225.207621,172.303755 223.638001,172.303755 L222.217037,172.303755 Z" id="Fill-5" fill="#000000"></path>
                    <path d="M218.883234,100.486688 C221.418673,100.486688 223.474044,98.4343349 223.474044,95.9026195 C223.474044,93.3709042 221.418673,91.3185514 218.883234,91.3185514 C216.347796,91.3185514 214.292425,93.3709042 214.292425,95.9026195 C214.292425,98.4343349 216.347796,100.486688 218.883234,100.486688 Z" id="Fill-7" fill="#000000"></path>
                    <path d="M114.278363,176.415846 L34.922943,176.415846 C33.4801172,176.415846 32.2996234,174.96607 32.2996234,173.194122 L32.2996234,3.78514588 C32.2996234,2.01319779 33.4801172,0.563422082 34.922943,0.563422082 L114.278363,0.563422082 L114.278363,176.415846 Z" id="Fill-9" fill="#FFFFFF"></path>
                    <path d="M34.922943,2.06738952 C33.7175276,2.06738952 32.7368433,3.26446687 32.7368433,4.73586333 L32.7368433,173.116561 C32.7368433,174.587957 33.7175276,175.785034 34.922943,175.785034 L113.841143,175.785034 L113.841143,2.06738952 L34.922943,2.06738952 Z M114.715583,176.852424 L34.922943,176.852424 C33.235274,176.852424 31.8624034,175.176622 31.8624034,173.116561 L31.8624034,4.73586333 C31.8624034,2.67580155 33.235274,1 34.922943,1 L114.715583,1 L114.715583,176.852424 Z" id="Fill-11" fill="#000000"></path>
                    <path d="M196.803627,176.852424 L117.448207,176.852424 L117.448207,1 L196.803627,1 C198.252356,1 199.426947,2.43377098 199.426947,4.20216857 L199.426947,173.650255 C199.426947,175.418653 198.252356,176.852424 196.803627,176.852424" id="Fill-13" fill="#A8DBD5"></path>
                    <path d="M194.180308,176.415846 L114.824888,176.415846 L114.824888,0.563422082 L194.180308,0.563422082 C195.629036,0.563422082 196.803627,2.00594891 196.803627,3.78514588 L196.803627,173.194122 C196.803627,174.973319 195.629036,176.415846 194.180308,176.415846" id="Fill-15" fill="#FFFFFF"></path>
                    <path d="M115.262108,175.785034 L194.180308,175.785034 C195.385723,175.785034 196.366407,174.587957 196.366407,173.116561 L196.366407,4.73586333 C196.366407,3.26446687 195.385723,2.06738952 194.180308,2.06738952 L115.262108,2.06738952 L115.262108,175.785034 Z M194.180308,176.852424 L114.387668,176.852424 L114.387668,1 L194.180308,1 C195.867977,1 197.240847,2.67580155 197.240847,4.73586333 L197.240847,173.116561 C197.240847,175.176622 195.867977,176.852424 194.180308,176.852424 L194.180308,176.852424 Z" id="Fill-17" fill="#000000"></path>
                    <path d="M90.8870959,95.8023141 C89.982925,95.8023141 89.2475211,96.5366382 89.2475211,97.4394813 C89.2475211,98.3423245 89.982925,99.0766485 90.8870959,99.0766485 L103.566474,99.0766485 C104.470645,99.0766485 105.206049,98.3423245 105.206049,97.4394813 C105.206049,96.5366382 104.470645,95.8023141 103.566474,95.8023141 L90.8870959,95.8023141 Z M103.566474,99.9498043 L90.8870959,99.9498043 C89.50089,99.9498043 88.3730812,98.8236516 88.3730812,97.4394813 C88.3730812,96.055311 89.50089,94.9291583 90.8870959,94.9291583 L103.566474,94.9291583 C104.95268,94.9291583 106.080489,96.055311 106.080489,97.4394813 C106.080489,98.8236516 104.95268,99.9498043 103.566474,99.9498043 L103.566474,99.9498043 Z" id="Fill-19" fill="#000000"></path>
                    <path d="M125.646081,95.8023141 C124.741911,95.8023141 124.006507,96.5366382 124.006507,97.4394813 C124.006507,98.3423245 124.741911,99.0766485 125.646081,99.0766485 L138.32546,99.0766485 C139.229631,99.0766485 139.965035,98.3423245 139.965035,97.4394813 C139.965035,96.5366382 139.229631,95.8023141 138.32546,95.8023141 L125.646081,95.8023141 Z M138.32546,99.9498043 L125.646081,99.9498043 C124.259876,99.9498043 123.132067,98.8236516 123.132067,97.4394813 C123.132067,96.055311 124.259876,94.9291583 125.646081,94.9291583 L138.32546,94.9291583 C139.711666,94.9291583 140.839474,96.055311 140.839474,97.4394813 C140.839474,98.8236516 139.711666,99.9498043 138.32546,99.9498043 L138.32546,99.9498043 Z" id="Fill-21" fill="#000000"></path>
                    <path d="M45.1976117,48.805282 L101.598984,48.805282 C102.746031,48.805282 103.675779,47.876899 103.675779,46.7315369 L103.675779,14.8613489 C103.675779,13.7159867 102.746031,12.7876038 101.598984,12.7876038 L45.1976117,12.7876038 C44.0505652,12.7876038 43.120817,13.7159867 43.120817,14.8613489 L43.120817,46.7315369 C43.120817,47.876899 44.0505652,48.805282 45.1976117,48.805282" id="Fill-23" fill="#00B49F"></path>
                    <path d="M45.1976117,13.2241817 C44.2934409,13.2241817 43.5580369,13.9585058 43.5580369,14.8613489 L43.5580369,46.7315369 C43.5580369,47.63438 44.2934409,48.3687041 45.1976117,48.3687041 L101.598984,48.3687041 C102.503155,48.3687041 103.238559,47.63438 103.238559,46.7315369 L103.238559,14.8613489 C103.238559,13.9585058 102.503155,13.2241817 101.598984,13.2241817 L45.1976117,13.2241817 Z M101.598984,49.2418599 L45.1976117,49.2418599 C43.8114059,49.2418599 42.683597,48.1157072 42.683597,46.7315369 L42.683597,14.8613489 C42.683597,13.4771786 43.8114059,12.3510259 45.1976117,12.3510259 L101.598984,12.3510259 C102.98519,12.3510259 104.112999,13.4771786 104.112999,14.8613489 L104.112999,46.7315369 C104.112999,48.1157072 102.98519,49.2418599 101.598984,49.2418599 L101.598984,49.2418599 Z" id="Fill-25" fill="#000000"></path>
                    <polygon id="Fill-27" fill="#A8DBD5" points="43.5580369 35.9262334 43.5580369 43.348058 91.4336208 13.2241817 80.0659022 13.2241817"></polygon>
                    <path d="M127.832181,48.586993 L184.233554,48.586993 C185.3806,48.586993 186.310349,47.6586101 186.310349,46.5132479 L186.310349,14.6430599 C186.310349,13.4976978 185.3806,12.5693148 184.233554,12.5693148 L127.832181,12.5693148 C126.685135,12.5693148 125.755386,13.4976978 125.755386,14.6430599 L125.755386,46.5132479 C125.755386,47.6586101 126.685135,48.586993 127.832181,48.586993" id="Fill-29" fill="#00B49F"></path>
                    <path d="M127.832181,13.0058927 C126.92801,13.0058927 126.192606,13.7402168 126.192606,14.6430599 L126.192606,46.5132479 C126.192606,47.416091 126.92801,48.1504151 127.832181,48.1504151 L184.233554,48.1504151 C185.137725,48.1504151 185.873129,47.416091 185.873129,46.5132479 L185.873129,14.6430599 C185.873129,13.7402168 185.137725,13.0058927 184.233554,13.0058927 L127.832181,13.0058927 Z M184.233554,49.0235709 L127.832181,49.0235709 C126.445975,49.0235709 125.318166,47.8974182 125.318166,46.5132479 L125.318166,14.6430599 C125.318166,13.2588896 126.445975,12.1327369 127.832181,12.1327369 L184.233554,12.1327369 C185.61976,12.1327369 186.747569,13.2588896 186.747569,14.6430599 L186.747569,46.5132479 C186.747569,47.8974182 185.61976,49.0235709 184.233554,49.0235709 L184.233554,49.0235709 Z" id="Fill-31" fill="#000000"></path>
                    <polygon id="Fill-33" fill="#A8DBD5" points="126.192606 35.7079444 126.192606 43.129769 174.06819 13.0058927 162.700472 13.0058927"></polygon>
                    <mask id="mask-5" fill="white">
                        <use xlink:href="#path-4"></use>
                    </mask>
                    <g id="Clip-36"></g>
                    <polygon id="Fill-35" fill="#A8DBD5" mask="url(#mask-5)" points="109 175 113.809419 175 113.809419 2 109 2"></polygon>
                    <path d="M117.313063,128.82822 C104.08082,128.82822 90.5812168,127.721277 76.9607225,125.512192 C40.568939,119.610095 16.2614777,108.037725 15.2447227,107.548102 C13.6134551,106.76248 12.9287686,104.805302 13.7153273,103.176429 C14.5021046,101.547994 16.4617244,100.864531 18.0923362,101.649062 C18.3343374,101.76541 42.7165634,113.353497 78.2218834,119.082054 C99.0156267,122.437374 119.506595,123.1562 139.126403,121.219103 C163.590608,118.803518 186.770697,112.22538 208.022429,101.66718 C209.643859,100.861693 211.612223,101.521144 212.418894,103.140193 C213.225565,104.759243 212.565144,106.724716 210.943714,107.530421 C188.937997,118.463205 164.947301,125.265744 139.638388,127.748999 C132.303586,128.468698 124.850735,128.82822 117.313063,128.82822" id="Fill-37" fill="#00B49F" mask="url(#mask-5)"></path>
                    <path d="M117.312866,124.025863 C104.198235,124.025863 90.8153699,122.928306 77.3113947,120.737994 C41.2317863,114.886541 16.4403225,103.081037 16.1941676,102.962288 C15.6504846,102.70056 15.4222558,102.048312 15.6843692,101.505427 C15.9467012,100.962325 16.5999078,100.734649 17.1438094,100.996159 C17.3875595,101.113599 41.9468596,112.801008 77.7320003,118.594833 C98.7297067,121.994466 119.428792,122.729881 139.254093,120.780343 C164.016263,118.345766 187.480765,111.691445 208.996139,101.002053 C209.53698,100.733558 210.192592,100.953375 210.461701,101.493203 C210.730591,102.032814 210.510232,102.688117 209.970047,102.956394 C188.202833,113.770647 164.46813,120.499841 139.42439,122.95712 C132.160418,123.669833 124.77949,124.025863 117.312866,124.025863" id="Fill-38" fill="#A8DBD5" mask="url(#mask-5)"></path>
                </g>
            </g>
        </g>
    </g>
</svg>

<svg width="249" height="227" xmlns="http://www.w3.org/2000/svg" xmlns:xlink="http://www.w3.org/1999/xlink">
  <defs>
    <path id="a" d="M0 0h250v226.694H0z"/>
    <path id="d" d="M0 176.852h226.48V2H0z"/>
    <rect id="c" x="0" y="226.694" width="248.775" height="2.451" rx="1.225"/>
  </defs>
  <g fill="none" fill-rule="evenodd">
    <g transform="translate(0 -3)">
      <mask id="b" fill="#fff">
        <use xlink:href="#a"/>
      </mask>
      <ellipse fill="#F2F2F2" mask="url(#b)" cx="124.387" cy="126.213" rx="123.162" ry="122.537"/>
    </g>
    <g transform="translate(0 -3)">
      <use fill="#000" xlink:href="#c"/>
      <rect stroke="#000" x=".5" y="227.194" width="247.775" height="1.451" rx=".725"/>
    </g>
    <g transform="translate(12 47)">
      <path d="M11.805 171.649a2.84 2.84 0 0 1 2.842 2.838 2.84 2.84 0 0 1-2.842 2.837H2.842A2.84 2.84 0 0 1 0 174.487a2.84 2.84 0 0 1 2.842-2.838h1.42v-68.325h6.122v68.325h1.42ZM7.05 99.832a4.587 4.587 0 0 0 4.591-4.584 4.587 4.587 0 0 0-4.59-4.584 4.587 4.587 0 0 0-4.592 4.584 4.587 4.587 0 0 0 4.591 4.584ZM222.217 172.304v-68.325h-6.121v68.325h-1.421a2.84 2.84 0 0 0-2.842 2.838 2.84 2.84 0 0 0 2.842 2.837h8.963a2.84 2.84 0 0 0 2.842-2.837 2.84 2.84 0 0 0-2.842-2.838h-1.421ZM218.883 100.487a4.587 4.587 0 0 0 4.591-4.584 4.587 4.587 0 0 0-4.59-4.584 4.587 4.587 0 0 0-4.592 4.584 4.587 4.587 0 0 0 4.591 4.584Z" fill="#000"/>
      <path d="M114.278 176.416H34.923c-1.443 0-2.623-1.45-2.623-3.222V3.785c0-1.772 1.18-3.222 2.623-3.222h79.355v175.853Z" fill="#FFF"/>
      <path d="M34.923 2.067c-1.205 0-2.186 1.197-2.186 2.669v168.38c0 1.472.98 2.669 2.186 2.669h78.918V2.067H34.923Zm79.793 174.785H34.923c-1.688 0-3.06-1.675-3.06-3.735V4.736c0-2.06 1.372-3.736 3.06-3.736h79.793v175.852Z" fill="#000"/>
      <path d="M196.804 176.852h-79.356V1h79.356c1.448 0 2.623 1.434 2.623 3.202V173.65c0 1.769-1.175 3.202-2.623 3.202" fill="#A8DBD5"/>
      <path d="M194.18 176.416h-79.355V.563h79.355c1.449 0 2.624 1.443 2.624 3.222v169.41c0 1.778-1.175 3.22-2.624 3.22" fill="#FFF"/>
      <path d="M115.262 175.785h78.918c1.206 0 2.186-1.197 2.186-2.668V4.736c0-1.472-.98-2.669-2.186-2.669h-78.918v173.718Zm78.918 1.067h-79.792V1h79.792c1.688 0 3.06 1.676 3.06 3.736v168.38c0 2.06-1.372 3.736-3.06 3.736ZM90.887 95.802a1.64 1.64 0 0 0-1.64 1.637 1.64 1.64 0 0 0 1.64 1.638h12.68a1.64 1.64 0 0 0 1.639-1.638 1.64 1.64 0 0 0-1.64-1.637H90.887Zm12.68 4.148h-12.68a2.515 2.515 0 0 1-2.514-2.51 2.515 2.515 0 0 1 2.514-2.51h12.68a2.515 2.515 0 0 1 2.513 2.51 2.515 2.515 0 0 1-2.514 2.51Z" fill="#000"/>
      <path d="M125.646 95.802a1.64 1.64 0 0 0-1.64 1.637 1.64 1.64 0 0 0 1.64 1.638h12.68a1.64 1.64 0 0 0 1.639-1.638 1.64 1.64 0 0 0-1.64-1.637h-12.679Zm12.68 4.148h-12.68a2.515 2.515 0 0 1-2.514-2.51 2.515 2.515 0 0 1 2.514-2.51h12.68a2.515 2.515 0 0 1 2.513 2.51 2.515 2.515 0 0 1-2.514 2.51Z" fill="#000"/>
      <path d="M45.198 48.805h56.401a2.075 2.075 0 0 0 2.077-2.073v-31.87c0-1.146-.93-2.074-2.077-2.074H45.198a2.075 2.075 0 0 0-2.077 2.073v31.87c0 1.146.93 2.074 2.077 2.074" fill="#00B49F"/>
      <path d="M45.198 13.224a1.64 1.64 0 0 0-1.64 1.637v31.87a1.64 1.64 0 0 0 1.64 1.638h56.401a1.64 1.64 0 0 0 1.64-1.637v-31.87a1.64 1.64 0 0 0-1.64-1.638H45.198Zm56.401 36.018H45.198a2.515 2.515 0 0 1-2.514-2.51v-31.87a2.515 2.515 0 0 1 2.514-2.511h56.401a2.515 2.515 0 0 1 2.514 2.51v31.87a2.515 2.515 0 0 1-2.514 2.51Z" fill="#000"/>
      <path fill="#A8DBD5" d="M43.558 35.926v7.422l47.876-30.124H80.066z"/>
      <path d="M127.832 48.587h56.402a2.075 2.075 0 0 0 2.076-2.074v-31.87c0-1.145-.93-2.074-2.076-2.074h-56.402a2.075 2.075 0 0 0-2.077 2.074v31.87c0 1.146.93 2.074 2.077 2.074" fill="#00B49F"/>
      <path d="M127.832 13.006a1.64 1.64 0 0 0-1.64 1.637v31.87a1.64 1.64 0 0 0 1.64 1.637h56.402a1.64 1.64 0 0 0 1.64-1.637v-31.87a1.64 1.64 0 0 0-1.64-1.637h-56.402Zm56.402 36.018h-56.402a2.515 2.515 0 0 1-2.514-2.51v-31.87a2.515 2.515 0 0 1 2.514-2.511h56.402a2.515 2.515 0 0 1 2.514 2.51v31.87a2.515 2.515 0 0 1-2.514 2.51Z" fill="#000"/>
      <path fill="#A8DBD5" d="M126.193 35.708v7.422l47.875-30.124H162.7z"/>
      <mask id="e" fill="#fff">
        <use xlink:href="#d"/>
      </mask>
      <path fill="#A8DBD5" mask="url(#e)" d="M109 175h4.809V2H109z"/>
      <path d="M117.313 128.828c-13.232 0-26.732-1.107-40.352-3.316-36.392-5.902-60.7-17.474-61.716-17.964a3.272 3.272 0 0 1-1.53-4.372 3.282 3.282 0 0 1 4.377-1.527c.242.116 24.625 11.704 60.13 17.433 20.794 3.355 41.285 4.074 60.904 2.137 24.465-2.415 47.645-8.994 68.896-19.552a3.281 3.281 0 0 1 4.397 1.473 3.272 3.272 0 0 1-1.475 4.39c-22.006 10.933-45.997 17.736-71.306 20.219-7.334.72-14.787 1.08-22.325 1.08" fill="#00B49F" mask="url(#e)"/>
      <path d="M117.313 124.026c-13.115 0-26.498-1.098-40.002-3.288-36.08-5.851-60.87-17.657-61.117-17.776a1.09 1.09 0 1 1 .95-1.966c.244.118 24.803 11.805 60.588 17.599 20.998 3.4 41.697 4.135 61.522 2.185 24.762-2.434 48.227-9.089 69.742-19.778a1.09 1.09 0 1 1 .974 1.954c-21.767 10.815-45.502 17.544-70.546 20.001a226.485 226.485 0 0 1-22.111 1.069" fill="#A8DBD5" mask="url(#e)"/>
    </g>
  </g>
</svg>
